X: 2103
T: Atholl Highlanders, The
R: jig
M: 6/8
K: Amajor
|:(3B/c/d/|e2 e e>cA|e>cA B>cd|e3 e>cA|B>cd c2 B|
e3 e>cA|e>cA B>cd|c<ae f>ed|c<dB A2:|
|:E|A>ce A2 e|A>df A2 f|A>ce A2 e|B>cd c2 B|
A>ce A>ce|A>df A>df|c<ae f>ed|c<dB A2:|
|:e|a2 e e>dc|a2 e e>dc|a>ee e>dc|BB/c/d c2 B|
a>ee e>dc|a>ee e>dc|c<ae f>ed|c<dB A2:|
|:A/B/|c>Ac c>Ac|d>Bd d>Bd|c>Ac c>Ac|B>=GB d>cB|
c>Ac c2 A|dB/c/d d>cB|c<ae f>ed|c<dB A2:|

